dist/images/icons/viber-copy.svg

<svg width="26" height="27" viewBox="0 0 26 27" fill="none" xmlns="http://www.w3.org/2000/svg">
<path d="M22.5469 2.78906C21.8867 2.23047 19.2461 0.300781 13.457 0.300781C13.457 0.300781 6.60156 -0.105469 3.25 2.94141C1.37109 4.82031 0.710938 7.51172 0.660156 10.9141C0.609375 14.2656 0.507812 20.6133 6.60156 22.3398V24.9297C6.60156 24.9297 6.55078 25.9961 7.26172 26.25C8.125 26.5039 8.58203 25.6914 9.39453 24.8281C9.85156 24.3203 10.4609 23.6602 10.918 23.1016C15.082 23.457 18.2812 22.6445 18.6875 22.543C19.5 22.2383 24.2734 21.6289 25.0352 15.332C25.8477 8.78125 24.6797 4.66797 22.5469 2.78906ZM23.207 14.8242C22.5977 20.1055 18.6875 20.4609 17.9766 20.7148C17.6719 20.7656 14.8789 21.4766 11.3242 21.2734C11.3242 21.2734 8.68359 24.4219 7.87109 25.2852C7.61719 25.5391 7.3125 25.5391 7.3125 24.9805C7.3125 24.625 7.3125 20.6133 7.3125 20.6133C2.18359 19.1914 2.48828 13.8086 2.53906 11.0156C2.58984 8.17188 3.09766 5.88672 4.67188 4.3125C7.51562 1.72266 13.3555 2.12891 13.3555 2.12891C18.2812 2.12891 20.6172 3.65234 21.1758 4.10938C23.0039 5.68359 23.918 9.39062 23.207 14.8242ZM16.1484 10.7617C16.0977 9.28906 15.3359 8.47656 13.9141 8.375C13.457 8.375 13.4062 9.03516 13.8633 9.03516C14.9297 9.13672 15.4375 9.64453 15.5391 10.7617C15.5391 11.2188 16.1992 11.168 16.1484 10.7617ZM17.2148 11.3203C17.2148 11.7266 17.875 11.7773 17.875 11.3203C17.9258 8.88281 16.3516 6.85156 13.4062 6.64844C12.9492 6.59766 12.8984 7.25781 13.3555 7.30859C15.8945 7.46094 17.2656 9.1875 17.2148 11.3203ZM19.6016 11.9805C19.5508 7.5625 16.5547 4.97266 12.7969 4.92188C12.3906 4.92188 12.3906 5.58203 12.7969 5.58203C16.1484 5.63281 18.8906 7.86719 18.9414 11.9805C18.9414 12.4375 19.6016 12.4375 19.6016 11.9805ZM18.9922 16.957C19.2461 16.5 19.1953 16.0938 18.8398 15.7891C18.1797 15.1797 17.2656 14.5195 16.5039 14.1133C15.9453 13.8086 15.3867 14.0117 15.1328 14.3164L14.6758 14.9258C14.4219 15.2305 13.9648 15.1797 13.9648 15.1797C10.5625 14.3164 9.64844 10.9141 9.64844 10.9141C9.64844 10.9141 9.64844 10.457 9.95312 10.2031L10.5625 9.69531C10.8672 9.44141 11.0195 8.88281 10.7148 8.32422C10.5625 8.01953 10.207 7.46094 9.95312 7.15625C9.69922 6.75 9.03906 6.03906 9.03906 6.03906C8.78516 5.63281 8.32812 5.58203 7.87109 5.83594H7.82031C6.85547 6.34375 5.78906 7.41016 6.14453 8.42578C6.14453 8.42578 6.39844 9.33984 7.46484 11.2695C7.97266 12.2344 8.53125 12.9961 9.03906 13.6562C9.59766 14.3672 10.3594 15.1289 11.1719 15.7891C12.7969 17.0586 15.2852 18.3789 16.3516 18.6836H16.4023C17.418 19.0391 18.4844 17.9727 18.9922 17.0078V16.957Z" fill="rgb(255, 198, 117)"/>
</svg>

<svg width="26" height="27" fill="none" xmlns="http://www.w3.org/2000/svg"><path d="M22.547 2.79c-.66-.56-3.3-2.49-9.09-2.49 0 0-6.855-.405-10.207 2.641C1.371 4.821.71 7.511.66 10.914c-.05 3.352-.152 9.7 5.942 11.426v2.59s-.051 1.066.66 1.32c.863.254 1.32-.559 2.133-1.422.457-.508 1.066-1.168 1.523-1.726 4.164.355 7.363-.457 7.77-.559.812-.305 5.585-.914 6.347-7.211.813-6.55-.355-10.664-2.488-12.543zm.66 12.034c-.61 5.281-4.52 5.637-5.23 5.89-.305.052-3.098.763-6.653.56 0 0-2.64 3.148-3.453 4.011-.254.254-.559.254-.559-.305v-4.367c-5.128-1.422-4.824-6.804-4.773-9.597.05-2.844.559-5.13 2.133-6.704 2.844-2.59 8.683-2.183 8.683-2.183 4.926 0 7.262 1.523 7.82 1.98 1.829 1.575 2.743 5.282 2.032 10.715zm-7.059-4.062c-.05-1.473-.812-2.285-2.234-2.387-.457 0-.508.66-.05.66 1.066.102 1.573.61 1.675 1.727 0 .457.66.406.61 0zm1.067.558c0 .407.66.457.66 0 .05-2.437-1.523-4.468-4.469-4.672-.457-.05-.508.61-.05.66 2.539.153 3.91 1.88 3.859 4.012zm2.387.66c-.051-4.418-3.047-7.007-6.805-7.058-.406 0-.406.66 0 .66 3.351.05 6.094 2.285 6.144 6.398 0 .457.66.457.66 0zm-.61 4.977c.254-.457.203-.863-.152-1.168-.66-.61-1.574-1.27-2.336-1.676-.559-.304-1.117-.101-1.371.203l-.457.61c-.254.304-.711.254-.711.254-3.402-.864-4.317-4.266-4.317-4.266s0-.457.305-.71l.61-.509c.304-.254.457-.812.152-1.37a7.626 7.626 0 00-.762-1.169C9.7 6.75 9.04 6.04 9.04 6.04c-.254-.406-.71-.457-1.168-.203h-.05c-.966.508-2.032 1.574-1.676 2.59 0 0 .253.914 1.32 2.844.508.964 1.066 1.726 1.574 2.386.559.711 1.32 1.473 2.133 2.133 1.625 1.27 4.113 2.59 5.18 2.895h.05c1.016.355 2.082-.711 2.59-1.676v-.051z" fill="#FFC675"/></svg>
